contributed-vectors/fluid_walls.svg

<?xml version="1.0" encoding="UTF-8" standalone="no"?>
<svg
   xmlns:dc="http://purl.org/dc/elements/1.1/"
   xmlns:cc="http://creativecommons.org/ns#"
   xmlns:rdf="http://www.w3.org/1999/02/22-rdf-syntax-ns#"
   xmlns:svg="http://www.w3.org/2000/svg"
   xmlns="http://www.w3.org/2000/svg"
   xmlns:sodipodi="http://sodipodi.sourceforge.net/DTD/sodipodi-0.dtd"
   xmlns:inkscape="http://www.inkscape.org/namespaces/inkscape"
   viewBox="0 0 192 192"
   version="1.1"
   id="svg16"
   sodipodi:docname="fluid_walls.svg"
   inkscape:version="0.92.4 (5da689c313, 2019-01-14)">
  <metadata
     id="metadata20">
    <rdf:RDF>
      <cc:Work
         rdf:about="">
        <dc:format>image/svg+xml</dc:format>
        <dc:type
           rdf:resource="http://purl.org/dc/dcmitype/StillImage" />
        <dc:title></dc:title>
      </cc:Work>
    </rdf:RDF>
  </metadata>
  <sodipodi:namedview
     pagecolor="#ffffff"
     bordercolor="#666666"
     borderopacity="1"
     objecttolerance="10"
     gridtolerance="10"
     guidetolerance="10"
     inkscape:pageopacity="0"
     inkscape:pageshadow="2"
     inkscape:window-width="1920"
     inkscape:window-height="1017"
     id="namedview18"
     showgrid="true"
     inkscape:zoom="4.9166667"
     inkscape:cx="128.81434"
     inkscape:cy="106.28718"
     inkscape:window-x="-8"
     inkscape:window-y="-8"
     inkscape:window-maximized="1"
     inkscape:current-layer="svg16">
    <inkscape:grid
       type="xygrid"
       id="grid827"
       spacingx="4"
       spacingy="4" />
  </sodipodi:namedview>
  <defs
     id="defs4">
    <style
       id="style2">.a{fill:none;stroke:#b1b5bd;stroke-linecap:round;stroke-linejoin:round;isolation:isolate;opacity:0.63;}</style>
  </defs>
  <rect
     class="a"
     x="20"
     y="20"
     width="152"
     height="152"
     rx="10"
     id="rect6"
     style="fill:#ff837d;stroke:none;opacity:1" />
  <path
     style="fill:#f9de81;stroke:none;stroke-width:1px;stroke-linecap:butt;stroke-linejoin:miter;stroke-opacity:1"
     d="M 25.873047 20.892578 C 22.405713 22.459327 20 25.934917 20 30 L 20 162 C 20 167.54 24.46 172 30 172 L 162 172 C 163.47492 172 164.86891 171.67588 166.12695 171.10742 C 150.63918 167.97516 108.93881 154.22463 96 96 C 83.061193 37.775371 41.360815 24.024839 25.873047 20.892578 z "
     id="path831" />
  <path
     style="opacity:1;vector-effect:none;fill:#ffffff;fill-opacity:1;fill-rule:evenodd;stroke:none;stroke-width:8;stroke-linecap:round;stroke-linejoin:round;stroke-miterlimit:4;stroke-dasharray:none;paint-order:stroke fill markers"
     d="M 133.57227 20 C 127.68028 25.47095 124 33.288374 124 42 C 124 58.62 137.38 72 154 72 C 160.76541 72 166.99229 69.781463 172 66.03125 L 172 30 C 172 24.46 167.54 20 162 20 L 133.57227 20 z "
     id="rect829" />
  <path
     style="fill:#fcecdc"
     d="m 136.03437,118.24722 c 0,-2.87639 -3.16119,-7.95476 -6.1231,-12.50904 -2.96191,-4.55428 -5.72454,-8.584476 -9.21764,-8.584476 -3.83519,0 -5.53729,5.075656 -11.60944,13.666906 C 103.83518,118.24722 100,124 100,124 h 32 c 0,0 4.03437,0 4.03437,-5.75278 z"
     id="path833-7"
     inkscape:connector-curvature="0"
     sodipodi:nodetypes="ssssccs" />
  <path
     style="fill:#ffffff;stroke:none;stroke-width:1px;stroke-linecap:butt;stroke-linejoin:miter;stroke-opacity:1"
     d="M 56,112 C 56,106 62.594078,95.40678 68.772473,85.90678 74.950868,76.40678 80.71358,68 88,68 96,68 100.38465,78.587568 113.05085,96.508475 124,112 132,124 132,124 H 68 c 0,0 -12,0 -12,-12 z"
     id="path833"
     inkscape:connector-curvature="0"
     sodipodi:nodetypes="ssssccs" />
</svg>

<svg xmlns="http://www.w3.org/2000/svg" viewBox="0 0 192 192"><rect width="152" height="152" x="20" y="20" rx="10" style="fill:#ff837d;stroke:none;opacity:1;stroke-linecap:round;stroke-linejoin:round;isolation:isolate"/><path d="M25.873 20.893A9.97 9.97 0 0 0 20 30v132c0 5.54 4.46 10 10 10h132a9.99 9.99 0 0 0 4.127-.893C150.639 167.975 108.939 154.225 96 96 83.061 37.775 41.36 24.025 25.873 20.893z" style="fill:#f9de81;stroke:none;stroke-width:1px;stroke-linecap:butt;stroke-linejoin:miter;stroke-opacity:1"/><path d="M133.572 20A29.902 29.902 0 0 0 124 42c0 16.62 13.38 30 30 30 6.765 0 12.992-2.219 18-5.969V30c0-5.54-4.46-10-10-10h-28.428z" style="opacity:1;vector-effect:none;fill:#fff;fill-opacity:1;fill-rule:evenodd;stroke:none;stroke-width:8;stroke-linecap:round;stroke-linejoin:round;stroke-miterlimit:4;stroke-dasharray:none;paint-order:stroke fill markers"/><path d="M136.034 118.247c0-2.876-3.16-7.955-6.123-12.509-2.962-4.554-5.724-8.584-9.217-8.584-3.836 0-5.538 5.075-11.61 13.667A652.82 652.82 0 0 0 100 124h32s4.034 0 4.034-5.753z" style="fill:#fcecdc"/><path d="M56 112c0-6 6.594-16.593 12.772-26.093C74.951 76.407 80.714 68 88 68c8 0 12.385 10.588 25.05 28.508C124 112 132 124 132 124H68s-12 0-12-12z" style="fill:#fff;stroke:none;stroke-width:1px;stroke-linecap:butt;stroke-linejoin:miter;stroke-opacity:1"/></svg>
